X: 1410
T: the Maids of Mitchellstown   #2
R: reel
%S: s:2 b:10(5+5)
B: O'Neill's 1850 #1410
O: Cronin
Z: Bob Safranek, rjs@gsp.org
Z: Compacted via repeats and multiple endings [JC]
Z: Assume there should be "D.C." at end of B part
M: C|
L: 1/8
K: D
|: D2(AG) EFGE | ABGE cAGE | D2(AG) EFGB |1 ABGE CEGE :|2 AcGE (TED) HD2 |]
|: DEGA c2(AG) | Adde f2(ed) | cAGE FEFG |1 AFGE (TED) Dz :|2 AddB cAGE |]
